X: 30175
T: Old Dudeen, The
R: reel
M: 4/4
K: Bminor
dBBA F3B|DA B/c/d egfe|dBBA F3 A|B/c/d cA B3c|
d2 BA F3A|DA B/c/d egfe|dBBA F3 A|B/c/d cA B3g|
fdB2 d3e|f2bf afeg|fdBd A3d|fbaf e3g|
fdB2 d3e|f2b2 a3f|b3c' a2fa|bc'af egfe|

